!!!SOCIAL_FUNCTION:	dream songs
!!!PDT:	1909
!!!OTL: No_112_Song_of_the_Trees.krn
!!!REG: Great_Lakes
!!!LANG: Non-Tone
!!!LING_GROUP: Algonquin
**kern	**kern
*staff2	*staff1
=1-	=1-
*clefF4	*clefF4
*k[f#c#g#]	*k[f#c#g#]
*M3/4	*M3/4
12GG#^/	4e\
12r	.
12GG#/	.
12GG#^/	4e\
12r	.
12GG#/	.
12GG#^/	12e\L
12r	12c#\
12GG#/	12e\J
=2||	=2||
*M2/4	*M2/4
2r	2e\
=3||	=3||
*M3/4	*M3/4
2.r	8c#\L
.	8e\J
.	8c#\L
.	8B\J
.	8.A\L
.	16A\Jk
=4||	=4||
*M2/4	*M2/4
2r	4.A\
.	8A\
=5||	=5||
*M3/4	*M3/4
2.r	2.A\
=6	=6
2.r	4e\
.	4e\
.	12e\L
.	12c#\
.	12e\J
=7||	=7||
*M2/4	*M2/4
2r	2e\
=8||	=8||
*M3/4	*M3/4
2.r	8c#\L
.	8e\J
.	8c#\L
.	8B\J
.	8.A\L
.	16A\Jk
=9||	=9||
*M2/4	*M2/4
2r	4.A\
.	8A\
=10	=10
2r	2A\
=11	=11
2r	8A\L
.	8A\J
.	12A\L
.	12c#\
.	12A\J
=12	=12
2r	8c#\L
.	[8c#\J
.	4c#\]
=13||	=13||
*M3/4	*M3/4
2.r	8B\L
.	8c#\J
.	16e\LK
.	8.A\J
.	8.A\L
.	16A\Jk
=14||	=14||
*M2/4	*M2/4
2r	2A\
=15||	=15||
*M3/4	*M3/4
2.r	16A\LK
.	8.A\J
.	8.A\L
.	16A\Jk
.	8F#\L
.	8A\J
=16||	=16||
*M2/4	*M2/4
2r	2A\
=17||	=17||
*M3/4	*M3/4
2.r	8F#\L
.	8A\J
.	8F#\L
.	8E\J
.	8.E\L
.	16E\Jk
=18||	=18||
*M2/4	*M2/4
2r	2E\
=19||	=19||
*M3/4	*M3/4
2.r	8E\L
.	8E\J
.	4E\
.	8C#/L
.	8E/J
=20||	=20||
*M2/4	*M2/4
2r	2E\
=21||	=21||
*M3/4	*M3/4
2.r	8C#/L
.	8E/J
.	8C#/L
.	8BB/J
.	8.AA/L
.	16AA/Jk
=22	=22
2.r	2.AA/
==	==
*-	*-
